;FLAVOR:RepRap
;TIME:5632
;Filament used: 5.85784m
;Layer height: 0.2
;Generated with Cura_SteamEngine 3.3.1
T0
M190 S60
M104 S225
M109 S225
M82 ;absolute extrusion mode
G28 ;Home
G1 Z15.0 F6000 ;Move the platform down 15mm
;Prime the extruder
G92 E0
G1 F200 E3
G92 E0
M83 ;relative extrusion mode
G1 F1500 E-6.5
;LAYER_COUNT:240
;LAYER:0
M107
G0 F3600 X79.189 Y106.978 Z0.3
;TYPE:WALL-INNER
G1 F1500 E6.5
G1 F1800 X80.336 Y107.328 E0.05983
G1 X81.386 Y107.893 E0.05949
G1 X82.315 Y108.659 E0.06007
G1 X83.071 Y109.585 E0.05964
G1 X83.638 Y110.652 E0.06028
G1 X83.985 Y111.801 E0.05988
G1 X84.102 Y113 E0.0601
G1 X83.985 Y114.199 E0.0601
G1 X83.638 Y115.348 E0.05988
G1 X83.071 Y116.415 E0.06028
G1 X82.315 Y117.341 E0.05964
G1 X81.386 Y118.107 E0.06007
G1 X80.336 Y118.671 E0.05946
G1 X79.188 Y119.022 E0.05989
G1 X78 Y119.14 E0.05956
G1 X76.81 Y119.022 E0.05966
G1 X75.662 Y118.671 E0.05989
G1 X74.613 Y118.107 E0.05942
G1 X73.684 Y117.341 E0.06007
G1 X72.928 Y116.415 E0.05964
G1 X72.361 Y115.348 E0.06028
G1 X72.014 Y114.199 E0.05988
G1 X71.897 Y113 E0.0601
G1 X72.014 Y111.801 E0.0601
G1 X72.361 Y110.652 E0.05988
G1 X72.928 Y109.585 E0.06028
G1 X73.684 Y108.659 E0.05964
G1 X74.611 Y107.894 E0.05996
G1 X75.665 Y107.327 E0.05971
G1 X76.81 Y106.978 E0.05972
G1 X78 Y106.86 E0.05966
G1 X79.189 Y106.978 E0.05961
G0 F3600 X79.17 Y107.076
G0 X81.842 Y109.142
G0 X83.017 Y110.912
G0 X83.431 Y113
G0 X83.017 Y115.088
G0 X81.842 Y116.858
G0 X80.079 Y118.042
G0 X78 Y118.519
G0 X78 Y118.419
G1 F1800 X80.064 Y118.006 E0.10501
G1 X81.814 Y116.83 E0.10519
G1 X82.981 Y115.073 E0.10523
G1 X83.391 Y113 E0.10543
G1 X82.981 Y110.927 E0.10543
G1 X81.814 Y109.17 E0.10523
G1 X80.064 Y107.994 E0.10519
G1 X78 Y107.581 E0.10501
G1 X75.935 Y107.994 E0.10506
G1 X74.185 Y109.17 E0.10519
G1 X73.018 Y110.927 E0.10523
G1 X72.608 Y113 E0.10543
G1 X73.018 Y115.073 E0.10543
G1 X74.185 Y116.83 E0.10523
G1 X75.935 Y118.006 E0.10519
G1 X78 Y118.419 E0.10506
G0 F3600 X78 Y118.011
;TYPE:WALL-OUTER
G1 F1800 X79.907 Y117.629 E0.09703
G1 X81.525 Y116.542 E0.09725
G1 X82.604 Y114.918 E0.09727
G1 X82.983 Y113 E0.09754
G1 X82.604 Y111.082 E0.09754
G1 X81.525 Y109.458 E0.09727
G1 X79.907 Y108.371 E0.09725
G1 X78 Y107.989 E0.09703
G1 X76.092 Y108.371 E0.09708
G1 X74.474 Y109.458 E0.09725
G1 X73.395 Y111.082 E0.09727
G1 X73.016 Y113 E0.09754
G1 X73.395 Y114.918 E0.09754
G1 X74.474 Y116.542 E0.09727
G1 X76.092 Y117.629 E0.09725
G1 X78 Y118.011 E0.09708
G0 F3600 X78.196 Y117.972
G0 X78.293 Y118.463
G0 X80.079 Y118.042
G0 X81.842 Y116.858
G0 X83.017 Y115.088
G0 X83.431 Y113
G0 X83.017 Y110.912
G0 X81.842 Y109.142
G0 X79.17 Y107.076
G0 X79.271 Y106.584
G1 F1800 X80.486 Y106.955 E0.06338
G1 X81.615 Y107.562 E0.06395
G1 X82.598 Y108.373 E0.06358
G1 X83.405 Y109.362 E0.06368
G1 X84.01 Y110.5 E0.0643
G1 X84.379 Y111.722 E0.06368
G1 X84.504 Y113 E0.06406
G1 X84.379 Y114.278 E0.06406
G1 X84.01 Y115.5 E0.06368
G1 X83.405 Y116.638 E0.0643
G1 X82.598 Y117.627 E0.06368
G1 X81.615 Y118.438 E0.06358
G1 X80.486 Y119.044 E0.06393
G1 X79.27 Y119.416 E0.06344
G1 X78 Y119.542 E0.06367
G1 X76.728 Y119.416 E0.06377
G1 X75.512 Y119.044 E0.06344
G1 X74.384 Y118.438 E0.06388
G1 X73.401 Y117.627 E0.06358
G1 X72.594 Y116.638 E0.06368
G1 X71.989 Y115.5 E0.0643
G1 X71.62 Y114.278 E0.06368
G1 X71.495 Y113 E0.06406
G1 X71.62 Y111.722 E0.06406
G1 X71.989 Y110.5 E0.06368
G1 X72.594 Y109.362 E0.0643
G1 X73.401 Y108.373 E0.06368
G1 X74.384 Y107.562 E0.06358
G1 X75.512 Y106.955 E0.06391
G1 X76.728 Y106.584 E0.06343
G1 X78 Y106.458 E0.06377
G1 X79.271 Y106.584 E0.06372
G0 F3600 X79.462 Y106.642
G0 X79.315 Y107.12
G0 X79.112 Y107.362
;TYPE:SKIN
G1 F1800 X79.528 Y107.489 E0.0217
G1 X78.679 Y107.319 E0.0432
G1 X79.112 Y107.362 E0.02171
G0 F3600 X77.321 Y107.319
G1 F1800 X76.469 Y107.49 E0.04335
G1 X76.887 Y107.362 E0.02181
G1 X77.321 Y107.319 E0.02176
G0 F3600 X75.189 Y108.026
G1 F1800 X74.52 Y108.475 E0.0402
G1 X74.83 Y108.219 E0.02006
G1 X75.189 Y108.026 E0.02033
G0 F3600 X73.485 Y109.518
G1 F1800 X73.086 Y110.118 E0.03595
G1 X73.257 Y109.797 E0.01815
G1 X73.485 Y109.518 E0.01798
G0 F3600 X72.497 Y111.548
G1 F1800 X72.365 Y112.216 E0.03397
G1 X72.398 Y111.876 E0.01704
G1 X72.497 Y111.548 E0.01709
G0 F3600 X72.365 Y113.784
G1 F1800 X72.497 Y114.452 E0.03397
G1 X72.398 Y114.124 E0.01709
G1 X72.365 Y113.784 E0.01704
G0 F3600 X73.086 Y115.882
G1 F1800 X73.485 Y116.482 E0.03595
G1 X73.257 Y116.203 E0.01798
G1 X73.086 Y115.882 E0.01815
G0 F3600 X74.523 Y117.527
G1 F1800 X75.187 Y117.973 E0.03991
G1 X74.832 Y117.782 E0.02011
G1 X74.523 Y117.527 E0.01999
G0 F3600 X77.32 Y118.681
G1 F1800 X76.888 Y118.638 E0.02166
G1 X76.475 Y118.512 E0.02154
G1 X77.32 Y118.681 E0.04299
G0 F3600 X79.521 Y118.512
G1 F1800 X79.11 Y118.638 E0.02145
G1 X78.68 Y118.681 E0.02156
G1 X79.521 Y118.512 E0.0428
G0 F3600 X81.476 Y117.527
G1 F1800 X81.167 Y117.782 E0.01999
G1 X80.813 Y117.972 E0.02004
G1 X81.476 Y117.527 E0.03984
G0 F3600 X82.913 Y115.882
G1 F1800 X82.742 Y116.203 E0.01815
G1 X82.514 Y116.482 E0.01798
G1 X82.913 Y115.882 E0.03595
G0 F3600 X83.634 Y113.784
G1 F1800 X83.601 Y114.124 E0.01704
G1 X83.502 Y114.452 E0.01709
G1 X83.634 Y113.784 E0.03397
G0 F3600 X83.502 Y111.548
G1 F1800 X83.601 Y111.876 E0.01709
G1 X83.634 Y112.216 E0.01704
G1 X83.502 Y111.548 E0.03397
G0 F3600 X82.514 Y109.518
G1 F1800 X82.742 Y109.797 E0.01798
G1 X82.913 Y110.118 E0.01815
G1 X82.514 Y109.518 E0.03595
G0 F3600 X80.81 Y108.026
G1 F1800 X81.167 Y108.218 E0.02022
G1 X81.476 Y108.473 E0.01999
G1 X80.81 Y108.026 E0.04002
G0 F3600 X80.691 Y107.844
;TYPE:SKIN
G1 F1800 X80.427 Y107.58 E0.00931
G0 F3600 X79.917 Y107.636
G1 F1800 X79.711 Y107.713 E0.00752
G0 F3600 X79.966 Y107.402
G1 F1800 X80.584 Y108.02 E0.0218
G0 F3600 X81.548 Y108.701
G0 X81.659 Y108.812
G1 F1800 X82.059 Y108.929 E0.01773
G1 X82.172 Y109.325 E0.01787
G0 F3600 X82.056 Y109.209
G0 X82.911 Y110.346
G0 X83.232 Y110.667
G1 F1800 X83.377 Y111.096 E0.01932
G1 X83.298 Y111.3 E0.01061
G0 F3600 X83.374 Y111.376
G0 X83.362 Y110.515
G1 F1800 X83.087 Y110.24 E0.0097
G0 F3600 X83.571 Y112.421
G0 X83.734 Y112.584
G1 F1800 X83.709 Y112.842 E0.01306
G1 X83.73 Y113.146 E0.013
G1 X83.697 Y113.395 E0.01159
G1 X83.54 Y113.522 E0.00811
G0 F3600 X83.599 Y113.581
G0 X83.553 Y114.665
G0 X83.592 Y114.705
G1 F1800 X83.407 Y114.802 E0.00701
G1 X83.351 Y115.029 E0.01094
G1 X83.286 Y115.247 E0.00993
G1 X83.184 Y115.428 E0.00941
G1 X83.079 Y115.606 E0.00977
G0 F3600 X82.937 Y115.464
G0 X82.46 Y116.684
G0 X82.503 Y116.727
G1 F1800 X82.283 Y116.789 E0.00636
G1 X82.163 Y116.953 E0.00945
G1 X82.034 Y117.107 E0.00905
G1 X81.873 Y117.228 E0.00909
G1 X81.711 Y117.349 E0.00966
G0 F3600 X81.571 Y117.209
G0 X80.668 Y118.286
G0 X80.527 Y118.145
G1 F1800 X80.351 Y118.251 E0.00966
G1 X80.157 Y118.341 E0.00982
G1 X79.934 Y118.401 E0.01057
G1 X79.79 Y118.539 E0.00838
G0 F3600 X79.707 Y118.457
G0 X76.292 Y118.436
G1 F1800 X76.072 Y118.216 E0.00776
G0 F3600 X75.589 Y118.298
G1 F1800 X75.868 Y118.295 E0.02081
G0 F3600 X76.228 Y118.655
G0 X74.388 Y117.38
G1 F1800 X73.626 Y116.618 E0.02688
G0 F3600 X73.464 Y116.739
G1 F1800 X74.267 Y117.542 E0.02833
G0 F3600 X72.996 Y115.706
G1 F1800 X72.508 Y115.218 E0.01722
G0 F3600 X72.659 Y114.803
G1 F1800 X72.747 Y115.174 E0.01807
G0 F3600 X73.107 Y115.534
G0 X72.532 Y113.545
G0 X72.309 Y113.321
G1 F1800 X72.278 Y113.007 E0.01436
G1 X72.282 Y112.729 E0.01224
G1 X72.36 Y112.524 E0.01045
G0 F3600 X72.493 Y112.656
G0 X72.117 Y113.412
G1 F1800 X72.3 Y113.595 E0.00646
G0 F3600 X72.628 Y111.377
G0 X72.513 Y111.262
G1 F1800 X72.618 Y111.084 E0.00954
G1 X72.674 Y110.858 E0.01054
G1 X72.759 Y110.66 E0.00976
G1 X72.864 Y110.482 E0.00954
G1 X73.006 Y110.341 E0.00876
G0 F3600 X73.116 Y110.452
G0 X73.794 Y109.432
G0 X73.653 Y109.291
G1 F1800 X73.773 Y109.128 E0.00967
G1 X73.893 Y108.966 E0.00915
G1 X74.042 Y108.831 E0.00905
G1 X74.204 Y108.71 E0.00938
G1 X74.288 Y108.512 E0.00711
G0 F3600 X74.355 Y108.579
G0 X75.295 Y107.822
G0 X75.41 Y107.937
G1 F1800 X75.556 Y107.8 E0.00889
G1 X75.733 Y107.694 E0.00942
G1 X75.947 Y107.625 E0.00996
G1 X76.17 Y107.566 E0.01088
G0 F3600 X76.328 Y107.724
G0 X78 Y107.541
G0 X80.079 Y107.958
G0 X81.842 Y109.142
G0 X82.793 Y110.575
G0 X83.818 Y112.385
G1 F1800 X83.867 Y112.434 E0.00173
G0 F3600 X83.689 Y112.448
G1 F1500 E-6.5
G0 F3600 X84.082 Y113
G0 X85.36 Y112.876
G0 X99.874 Y98.754
G0 X102.433 Y96.894
G0 X105.324 Y95.606
G0 X108.418 Y94.95
G0 X111.585 Y94.951
G0 X114.684 Y95.61
G0 X117.566 Y96.894
G0 X120.128 Y98.757
G0 X122.237 Y101.1
G0 X123.137 Y102.658
G0 X128.881 Y113.092
G0 X130.159 Y113.202
G0 X136.644 Y113
G0 X136.744 Y113
;TYPE:WALL-INNER
G1 F1500 E6.5
G1 F1800 X139.373 Y117.551 E0.26221
G1 X144.628 Y117.551 E0.26217
G1 X147.256 Y113 E0.26219
G1 X144.628 Y108.448 E0.26223
G1 X139.373 Y108.448 E0.26217
G1 X136.744 Y113 E0.26226
G0 F3600 X136.644 Y113
G0 X139.354 Y108.414
G0 X145.441 Y101.75
G0 X145.47 Y101.655
G1 F1800 X147.748 Y102.623 E0.12349
G1 X149.783 Y104.048 E0.12394
G1 X151.474 Y105.862 E0.12372
G1 X152.75 Y107.988 E0.1237
G1 X153.557 Y110.327 E0.12344
G1 X153.86 Y112.798 E0.1242
G1 X153.645 Y115.259 E0.12325
G1 X152.919 Y117.634 E0.1239
G1 X151.715 Y119.805 E0.12385
G1 X150.093 Y121.672 E0.12339
G1 X148.104 Y123.17 E0.12423
G1 X145.865 Y124.216 E0.12329
G1 X143.444 Y124.773 E0.12394
G1 X140.967 Y124.817 E0.1236
G1 X138.53 Y124.342 E0.12387
G1 X136.254 Y123.377 E0.12333
G1 X134.215 Y121.949 E0.12419
G1 X132.526 Y120.137 E0.12358
G1 X131.249 Y118.012 E0.12369
G1 X130.443 Y115.671 E0.12352
G1 X130.14 Y113.202 E0.1241
G1 X130.355 Y110.741 E0.12325
G1 X131.08 Y108.365 E0.12393
G1 X132.284 Y106.195 E0.12381
G1 X133.91 Y104.325 E0.12363
G1 X135.89 Y102.831 E0.12375
G1 X138.137 Y101.785 E0.12365
G1 X140.556 Y101.226 E0.12386
G1 X143.035 Y101.183 E0.1237
G1 X145.47 Y101.655 E0.12374
G0 F3600 X145.585 Y101.27
;TYPE:WALL-OUTER
G1 F1800 X147.944 Y102.272 E0.12787
G1 X150.049 Y103.746 E0.12821
G1 X151.794 Y105.618 E0.12768
G1 X153.114 Y107.816 E0.12791
G1 X153.949 Y110.238 E0.12781
G1 X154.262 Y112.789 E0.12822
G1 X154.039 Y115.34 E0.12776
G1 X153.29 Y117.79 E0.12782
G1 X152.045 Y120.034 E0.12803
G1 X150.365 Y121.969 E0.12785
G1 X148.316 Y123.512 E0.12797
G1 X145.993 Y124.597 E0.12791
G1 X143.494 Y125.172 E0.12793
G1 X140.93 Y125.218 E0.12794
G1 X138.416 Y124.728 E0.12778
G1 X136.055 Y123.727 E0.12794
G1 X133.951 Y122.253 E0.12817
G1 X132.206 Y120.381 E0.12768
G1 X130.885 Y118.184 E0.1279
G1 X130.051 Y115.76 E0.12789
G1 X129.738 Y113.211 E0.12813
G1 X129.961 Y110.66 E0.12776
G1 X130.709 Y108.209 E0.12785
G1 X131.954 Y105.966 E0.12799
G1 X133.636 Y104.031 E0.12791
G1 X135.685 Y102.485 E0.12806
G1 X138.005 Y101.405 E0.12767
G1 X140.506 Y100.827 E0.12806
G1 X143.071 Y100.782 E0.12799
G1 X145.585 Y101.27 E0.12777
G0 F3600 X145.769 Y101.348
G0 X145.573 Y101.807
G0 X139.354 Y108.414
G0 X136.774 Y112.75
G0 X137.206 Y113
G1 F1800 X139.604 Y117.151 E0.23917
G1 X144.397 Y117.151 E0.23912
G1 X146.794 Y113 E0.23914
G1 X144.397 Y108.848 E0.23919
G1 X139.604 Y108.848 E0.23912
G1 X137.206 Y113 E0.23921
G0 F3600 X137.306 Y113.173
G0 X136.873 Y113.422
G0 X136.294 Y113
;TYPE:SKIN
G1 F1800 X139.148 Y117.941 E0.28468
G1 X144.853 Y117.941 E0.28462
G1 X147.706 Y113 E0.28465
G1 X144.853 Y108.058 E0.28469
G1 X139.148 Y108.058 E0.28462
G1 X136.294 Y113 E0.28472
G0 F3600 X130.532 Y113.189
G1 F1800 X130.739 Y110.817 E0.11879
G1 X131.44 Y108.519 E0.11986
G1 X132.605 Y106.42 E0.11977
G1 X134.177 Y104.612 E0.11953
G1 X136.095 Y103.165 E0.11987
G1 X138.261 Y102.157 E0.11919
G1 X140.604 Y101.616 E0.11997
G1 X143 Y101.573 E0.11956
G1 X145.356 Y102.031 E0.11974
G1 X147.555 Y102.965 E0.11919
G1 X149.528 Y104.346 E0.12015
G1 X151.161 Y106.098 E0.11949
G1 X152.393 Y108.152 E0.11949
G1 X153.173 Y110.413 E0.11933
G1 X153.468 Y112.811 E0.12054
G1 X153.261 Y115.181 E0.11869
G1 X152.558 Y117.481 E0.11999
G1 X151.394 Y119.58 E0.11974
G1 X149.826 Y121.385 E0.11929
G1 X147.9 Y122.835 E0.12028
G1 X145.739 Y123.845 E0.11901
G1 X143.396 Y124.383 E0.11993
G1 X140.997 Y124.427 E0.11971
G1 X138.648 Y123.968 E0.11941
G1 X136.447 Y123.035 E0.11927
G1 X134.47 Y121.651 E0.1204
G1 X132.839 Y119.901 E0.11935
G1 X131.606 Y117.848 E0.11948
G1 X130.827 Y115.585 E0.1194
G1 X130.532 Y113.189 E0.12044
G0 F3600 X136.265 Y122.689
G1 F1800 X132.402 Y118.826 E0.27256
G1 X132.332 Y118.756
G0 F3600 X131.693 Y117.551
G1 F1800 X137.375 Y123.233 E0.4009
G1 X137.445 Y123.303
G0 F3600 X138.357 Y123.649
G1 F1800 X131.395 Y116.688 E0.49117
G1 X131.325 Y116.618
G0 F3600 X131.098 Y115.824
G1 F1800 X139.157 Y123.884 E0.56864
G1 X139.227 Y123.954
G0 F3600 X139.861 Y124.022
G1 F1800 X130.949 Y115.109 E0.62883
G1 X130.879 Y115.039
G0 F3600 X130.869 Y114.465
G1 F1800 X140.564 Y124.159 E0.684
G1 X140.634 Y124.229
G0 F3600 X141.213 Y124.242
G1 F1800 X130.79 Y113.819 E0.7354
G1 X130.72 Y113.749
G0 F3600 X130.712 Y113.175
G1 F1800 X141.768 Y124.232 E0.7801
G1 X141.838 Y124.302
G0 F3600 X142.323 Y124.221
G1 F1800 X130.757 Y112.655 E0.81604
G1 X130.687 Y112.585
G0 F3600 X130.803 Y112.135
G1 F1800 X142.879 Y124.211 E0.85203
G1 X142.949 Y124.281
G0 F3600 X143.423 Y124.19
G1 F1800 X130.848 Y111.615 E0.88723
G1 X130.778 Y111.545
G0 F3600 X130.893 Y111.094
G1 F1800 X143.884 Y124.085 E0.91659
G1 X143.954 Y124.155
G0 F3600 X144.343 Y123.979
G1 F1800 X130.985 Y110.62 E0.94251
G1 X130.915 Y110.55
G0 F3600 X131.117 Y110.187
G1 F1800 X139.032 Y118.101 E0.55841
G1 X139.102 Y118.171
G0 F3600 X139.051 Y118.121
G1 F1800 X144.804 Y123.873 E0.40587
G1 X144.874 Y123.943
G0 F3600 X145.264 Y123.768
G1 F1800 X139.617 Y118.121 E0.39843
G1 X139.547 Y118.051
G0 F3600 X140.183 Y118.121
G1 F1800 X145.717 Y123.656 E0.39049
G1 X145.787 Y123.726
G0 F3600 X146.103 Y123.475
G1 F1800 X140.748 Y118.121 E0.37779
G1 X140.678 Y118.051
G0 F3600 X141.314 Y118.121
G1 F1800 X146.488 Y123.295 E0.36505
G1 X146.558 Y123.365
G0 F3600 X146.873 Y123.115
G1 F1800 X141.88 Y118.121 E0.35232
G1 X141.81 Y118.051
G0 F3600 X142.445 Y118.121
G1 F1800 X147.259 Y122.934 E0.33962
G1 X147.329 Y123.004
G0 F3600 X147.644 Y122.754
G1 F1800 X143.011 Y118.121 E0.32688
G1 X142.941 Y118.051
G0 F3600 X143.577 Y118.121
G1 F1800 X147.993 Y122.538 E0.31161
G1 X148.063 Y122.608
G0 F3600 X148.316 Y122.294
G1 F1800 X144.143 Y118.121 E0.29443
G1 X144.073 Y118.051
G0 F3600 X144.708 Y118.121
G1 F1800 X148.639 Y122.052 E0.27735
G1 X148.709 Y122.122
G0 F3600 X148.961 Y121.809
G1 F1800 X145.072 Y117.919 E0.27443
G1 X145.002 Y117.849
G0 F3600 X145.279 Y117.56
G1 F1800 X149.284 Y121.565 E0.28257
G1 X149.354 Y121.635
G0 F3600 X149.607 Y121.323
G1 F1800 X145.486 Y117.202 E0.29076
G1 X145.416 Y117.132
G0 F3600 X145.693 Y116.843
G1 F1800 X149.888 Y121.039 E0.29602
G1 X149.958 Y121.109
G0 F3600 X150.151 Y120.735
G1 F1800 X145.9 Y116.485 E0.2999
G1 X145.83 Y116.415
G0 F3600 X146.108 Y116.126
G1 F1800 X150.414 Y120.433 E0.30385
G1 X150.484 Y120.503
G0 F3600 X150.677 Y120.13
G1 F1800 X146.314 Y115.767 E0.30783
G1 X146.244 Y115.697
G0 F3600 X146.521 Y115.409
G1 F1800 X150.94 Y119.827 E0.31175
G1 X151.01 Y119.897
G0 F3600 X151.203 Y119.525
G1 F1800 X146.728 Y115.05 E0.31574
G1 X146.658 Y114.98
G0 F3600 X146.936 Y114.692
G1 F1800 X151.414 Y119.17 E0.31595
G1 X151.484 Y119.24
G0 F3600 X151.617 Y118.807
G1 F1800 X147.143 Y114.333 E0.31566
G1 X147.073 Y114.263
G0 F3600 X147.35 Y113.975
G1 F1800 X151.818 Y118.443 E0.31524
G1 X151.888 Y118.513
G0 F3600 X152.02 Y118.079
G1 F1800 X147.557 Y113.616 E0.31489
G1 X147.487 Y113.546
G0 F3600 X147.764 Y113.257
G1 F1800 X152.222 Y117.715 E0.31454
G1 X152.292 Y117.785
G0 F3600 X152.413 Y117.34
G1 F1800 X147.694 Y112.622 E0.33292
