;FLAVOR:RepRap
;TIME:6580
;Filament used: 9.59685m
;Layer height: 0.2
;Generated with Cura_SteamEngine 3.3.1
T0
M190 S60
M104 S225
M109 S225
M82 ;absolute extrusion mode
G28 ;Home
G1 Z15.0 F6000 ;Move the platform down 15mm
;Prime the extruder
G92 E0
G1 F200 E3
G92 E0
M83 ;relative extrusion mode
G1 F1500 E-6.5
;LAYER_COUNT:35
;LAYER:0
M107
G0 F3600 X68.602 Y119.329 Z0.3
;TYPE:WALL-INNER
G1 F1500 E6.5
G1 F1800 X66.096 Y118.933 E0.12658
G1 X63.479 Y117.599 E0.14655
G1 X61.401 Y115.521 E0.14661
G1 X60.067 Y112.904 E0.14655
G1 X59.608 Y110 E0.14668
G1 X60.067 Y107.096 E0.14668
G1 X61.401 Y104.479 E0.14655
G1 X63.479 Y102.401 E0.14661
G1 X66.096 Y101.067 E0.14655
G1 X68.602 Y100.671 E0.12658
G1 X68.602 Y100.409 E0.01307
G1 X160.144 Y73.378 E4.762
G1 X160.4 Y73.303 E0.01331
G1 X160.4 Y73.569 E0.00796
G1 X160.4 Y73.57 E0.00005
G1 X160.4 Y146.43 E3.635
G1 X160.4 Y146.431 E0.00005
G1 X160.4 Y146.697 E0.01327
G1 X160.144 Y146.622 E0.00798
G1 X68.602 Y119.591 E4.762
G1 X68.602 Y119.329 E0.01307
G0 F3600 X68.202 Y119.671
;TYPE:WALL-OUTER
G1 F1800 X65.971 Y119.318 E0.11269
G1 X63.24 Y117.926 E0.15293
G1 X61.074 Y115.76 E0.15282
G1 X59.682 Y113.029 E0.15293
G1 X59.203 Y110 E0.153
G1 X59.682 Y106.971 E0.153
G1 X61.074 Y104.24 E0.15293
G1 X63.24 Y102.074 E0.15282
G1 X65.971 Y100.682 E0.15293
G1 X68.202 Y100.329 E0.11269
G1 X68.202 Y100.11 E0.01093
G1 X160.544 Y72.843 E4.80361
G1 X160.8 Y72.768 E0.01331
G1 X160.8 Y73.034 E0.00796
G1 X160.8 Y73.035 E0.00005
G1 X160.8 Y146.965 E3.68838
G1 X160.8 Y146.966 E0.00005
G1 X160.8 Y147.232 E0.01327
G1 X160.544 Y147.157 E0.00798
G1 X68.202 Y119.89 E4.80361
G1 X68.202 Y119.671 E0.01093
G0 F3600 X68.005 Y119.64
G0 X68.083 Y119.147
G0 X68.992 Y119.299
;TYPE:SKIN
G1 F1800 X68.992 Y118.996 E0.01512
G1 X66.214 Y118.556 E0.14032
G1 X63.71 Y117.28 E0.14021
G1 X61.72 Y115.29 E0.14041
G1 X60.444 Y112.786 E0.14021
G1 X60.004 Y110 E0.14072
G1 X60.444 Y107.214 E0.14072
G1 X61.72 Y104.71 E0.14021
G1 X63.71 Y102.72 E0.14041
G1 X66.214 Y101.444 E0.14021
G1 X68.992 Y101.004 E0.14032
G1 X68.992 Y100.701 E0.01512
G1 X160.01 Y73.825 E4.73473
G1 X160.01 Y146.175 E3.60956
G1 X68.992 Y119.299 E4.73473
G0 F3600 X64.103 Y117.277
G1 F1800 X61.72 Y114.894 E0.16813
G1 X61.65 Y114.824
G0 F3600 X61.132 Y113.741
G1 F1800 X65.256 Y117.865 E0.29097
G1 X65.326 Y117.935
G0 F3600 X66.35 Y118.393
G1 F1800 X60.604 Y112.647 E0.40541
G1 X60.534 Y112.577
G0 F3600 X60.498 Y111.976
G1 F1800 X67.022 Y118.499 E0.46027
G1 X67.092 Y118.569
G0 F3600 X67.694 Y118.606
G1 F1800 X60.392 Y111.304 E0.5152
G1 X60.322 Y111.234
G0 F3600 X60.286 Y110.632
G1 F1800 X68.366 Y118.712 E0.57009
G1 X68.436 Y118.782
G0 F3600 X69.039 Y118.819
G1 F1800 X60.191 Y109.971 E0.62427
G1 X60.121 Y109.901
G0 F3600 X60.268 Y109.482
G1 F1800 X70.273 Y119.488 E0.70594
G1 X70.343 Y119.558
G0 F3600 X71.076 Y119.725
G1 F1800 X60.345 Y108.994 E0.75713
G1 X60.275 Y108.924
G0 F3600 X60.422 Y108.505
G1 F1800 X71.878 Y119.962 E0.80832
G1 X71.948 Y120.032
G0 F3600 X72.681 Y120.198
G1 F1800 X60.499 Y108.016 E0.85951
G1 X60.429 Y107.946
G0 F3600 X60.576 Y107.528
G1 F1800 X73.484 Y120.436 E0.91073
G1 X73.554 Y120.506
G0 F3600 X74.287 Y120.673
G1 F1800 X60.707 Y107.093 E0.95814
G1 X60.637 Y107.023
G0 F3600 X60.898 Y106.718
G1 F1800 X75.089 Y120.91 E1.00129
G1 X75.159 Y120.98
G0 F3600 X75.892 Y121.147
G1 F1800 X61.089 Y106.343 E1.04447
G1 X61.019 Y106.273
G0 F3600 X61.279 Y105.969
G1 F1800 X76.695 Y121.384 E1.08765
G1 X76.765 Y121.454
G0 F3600 X77.498 Y121.621
G1 F1800 X61.47 Y105.594 E1.13083
G1 X61.4 Y105.524
G0 F3600 X61.661 Y105.219
G1 F1800 X78.3 Y121.858 E1.17397
G1 X78.37 Y121.928
G0 F3600 X79.103 Y122.095
G1 F1800 X61.852 Y104.844 E1.21715
G1 X61.782 Y104.774
G0 F3600 X62.128 Y104.554
G1 F1800 X79.905 Y122.332 E1.2543
G1 X79.975 Y122.402
G0 F3600 X80.709 Y122.569
G1 F1800 X62.411 Y104.272 E1.29099
G1 X62.341 Y104.202
G0 F3600 X62.694 Y103.989
G1 F1800 X81.511 Y122.806 E1.32764
G1 X81.581 Y122.876
G0 F3600 X82.314 Y123.043
G1 F1800 X62.977 Y103.706 E1.36433
G1 X62.907 Y103.636
G0 F3600 X63.259 Y103.423
G1 F1800 X83.116 Y123.28 E1.40102
G1 X83.186 Y123.35
G0 F3600 X83.92 Y123.518
G1 F1800 X63.542 Y103.14 E1.43778
G1 X63.472 Y103.07
G0 F3600 X63.829 Y102.861
G1 F1800 X84.722 Y123.755 E1.47415
G1 X84.792 Y123.825
G0 F3600 X85.525 Y123.991
G1 F1800 X64.203 Y102.67 E1.50435
G1 X64.133 Y102.6
G0 F3600 X64.578 Y102.479
G1 F1800 X86.327 Y124.228 E1.53451
G1 X86.397 Y124.298
G0 F3600 X87.131 Y124.466
G1 F1800 X64.953 Y102.288 E1.56478
G1 X64.883 Y102.218
G0 F3600 X65.328 Y102.097
G1 F1800 X87.933 Y124.703 E1.59494
G1 X88.003 Y124.773
G0 F3600 X88.736 Y124.94
G1 F1800 X65.702 Y101.906 E1.62517
G1 X65.632 Y101.836
G0 F3600 X66.077 Y101.715
G1 F1800 X89.538 Y125.176 E1.6553
G1 X89.608 Y125.246
G0 F3600 X90.342 Y125.414
G1 F1800 X66.507 Y101.58 E1.68165
G1 X66.437 Y101.51
G0 F3600 X66.996 Y101.503
G1 F1800 X91.144 Y125.651 E1.70377
G1 X91.214 Y125.721
G0 F3600 X91.947 Y125.888
G1 F1800 X67.484 Y101.425 E1.726
G1 X67.414 Y101.355
G0 F3600 X67.972 Y101.348
G1 F1800 X92.749 Y126.125 E1.74815
G1 X92.819 Y126.195
G0 F3600 X93.552 Y126.362
G1 F1800 X68.46 Y101.27 E1.77038
G1 X68.39 Y101.2
G0 F3600 X68.949 Y101.193
G1 F1800 X94.355 Y126.599 E1.79253
G1 X94.425 Y126.669
G0 F3600 X95.158 Y126.836
G1 F1800 X69.172 Y100.85 E1.83345
G1 X69.102 Y100.78
G0 F3600 X69.596 Y100.709
G1 F1800 X95.96 Y127.073 E1.86012
G1 X96.03 Y127.143
G0 F3600 X96.763 Y127.31
G1 F1800 X70.033 Y100.58 E1.88595
G1 X69.963 Y100.51
G0 F3600 X70.47 Y100.451
G1 F1800 X97.566 Y127.547 E1.91177
G1 X97.636 Y127.617
G0 F3600 X98.369 Y127.784
G1 F1800 X70.907 Y100.322 E1.93759
G1 X70.837 Y100.252
G0 F3600 X71.344 Y100.194
G1 F1800 X99.171 Y128.021 E1.96335
G1 X99.241 Y128.091
G0 F3600 X99.974 Y128.258
G1 F1800 X71.78 Y100.064 E1.98924
G1 X71.71 Y99.994
G0 F3600 X72.217 Y99.936
G1 F1800 X100.777 Y128.496 E2.01506
G1 X100.847 Y128.566
G0 F3600 X101.58 Y128.733
G1 F1800 X72.654 Y99.807 E2.04089
G1 X72.584 Y99.737
G0 F3600 X73.09 Y99.678
G1 F1800 X102.382 Y128.969 E2.06667
G1 X102.452 Y129.039
G0 F3600 X103.185 Y129.206
G1 F1800 X73.527 Y99.549 E2.0925
G1 X73.457 Y99.479
G0 F3600 X73.964 Y99.419
G1 F1800 X103.988 Y129.444 E2.11839
G1 X104.058 Y129.514
G0 F3600 X104.791 Y129.681
G1 F1800 X74.401 Y99.291 E2.14418
G1 X74.331 Y99.221
G0 F3600 X74.838 Y99.162
G1 F1800 X105.593 Y129.918 E2.16997
G1 X105.663 Y129.988
G0 F3600 X106.396 Y130.155
G1 F1800 X75.274 Y99.033 E2.19583
G1 X75.204 Y98.963
G0 F3600 X75.711 Y98.904
G1 F1800 X107.199 Y130.392 E2.22165
G1 X107.269 Y130.462
G0 F3600 X108.002 Y130.629
G1 F1800 X76.148 Y98.775 E2.24747
G1 X76.078 Y98.705
G0 F3600 X76.584 Y98.646
G1 F1800 X108.804 Y130.866 E2.2733
G1 X108.874 Y130.936
G0 F3600 X109.607 Y131.103
G1 F1800 X77.021 Y98.517 E2.29912
G1 X76.951 Y98.447
G0 F3600 X77.457 Y98.388
G1 F1800 X110.409 Y131.34 E2.32494
G1 X110.479 Y131.41
G0 F3600 X111.213 Y131.577
G1 F1800 X77.894 Y98.259 E2.3508
G1 X77.824 Y98.189
G0 F3600 X78.331 Y98.13
G1 F1800 X112.015 Y131.814 E2.37659
G1 X112.085 Y131.884
G0 F3600 X112.818 Y132.051
G1 F1800 X78.768 Y98.001 E2.40241
G1 X78.698 Y97.931
G0 F3600 X79.205 Y97.872
G1 F1800 X113.62 Y132.288 E2.4282
G1 X113.69 Y132.358
G0 F3600 X114.424 Y132.525
G1 F1800 X79.642 Y97.744 E2.45402
G1 X79.572 Y97.674
G0 F3600 X80.078 Y97.614
G1 F1800 X115.226 Y132.762 E2.47988
G1 X115.296 Y132.832
G0 F3600 X116.029 Y132.999
G1 F1800 X80.515 Y97.485 E2.5057
G1 X80.445 Y97.415
G0 F3600 X80.952 Y97.357
G1 F1800 X116.831 Y133.236 E2.53146
G1 X116.901 Y133.306
G0 F3600 X117.634 Y133.474
G1 F1800 X81.388 Y97.227 E2.55739
G1 X81.318 Y97.157
G0 F3600 X81.825 Y97.099
G1 F1800 X118.437 Y133.711 E2.58317
G1 X118.507 Y133.781
G0 F3600 X119.24 Y133.947
G1 F1800 X82.261 Y96.969 E2.60903
G1 X82.191 Y96.899
G0 F3600 X82.698 Y96.841
G1 F1800 X120.042 Y134.184 E2.63479
G1 X120.112 Y134.254
G0 F3600 X120.845 Y134.422
G1 F1800 X83.135 Y96.712 E2.66064
G1 X83.065 Y96.642
G0 F3600 X83.572 Y96.583
G1 F1800 X121.648 Y134.659 E2.68647
G1 X121.718 Y134.729
G0 F3600 X122.451 Y134.896
G1 F1800 X84.009 Y96.454 E2.71229
G1 X83.939 Y96.384
G0 F3600 X84.446 Y96.325
G1 F1800 X123.253 Y135.133 E2.73808
G1 X123.323 Y135.203
G0 F3600 X124.056 Y135.369
G1 F1800 X84.882 Y96.196 E2.7639
G1 X84.812 Y96.126
G0 F3600 X85.319 Y96.067
G1 F1800 X124.859 Y135.607 E2.78976
G1 X124.929 Y135.677
G0 F3600 X125.662 Y135.844
G1 F1800 X85.755 Y95.938 E2.81562
G1 X85.685 Y95.868
G0 F3600 X86.192 Y95.809
G1 F1800 X126.464 Y136.081 E2.84141
G1 X126.534 Y136.151
G0 F3600 X127.267 Y136.318
G1 F1800 X86.629 Y95.68 E2.86723
G1 X86.559 Y95.61
G0 F3600 X87.066 Y95.551
G1 F1800 X128.07 Y136.555 E2.89305
G1 X128.14 Y136.625
G0 F3600 X128.873 Y136.792
G1 F1800 X87.503 Y95.422 E2.91888
G1 X87.433 Y95.352
G0 F3600 X87.94 Y95.293
G1 F1800 X129.675 Y137.029 E2.94466
G1 X129.745 Y137.099
G0 F3600 X130.478 Y137.266
G1 F1800 X88.376 Y95.164 E2.97052
G1 X88.306 Y95.094
G0 F3600 X88.813 Y95.035
G1 F1800 X131.281 Y137.503 E2.99635
G1 X131.351 Y137.573
G0 F3600 X132.084 Y137.74
G1 F1800 X89.249 Y94.906 E3.02221
G1 X89.179 Y94.836
G0 F3600 X89.686 Y94.777
G1 F1800 X132.886 Y137.977 E3.04799
G1 X132.956 Y138.047
G0 F3600 X133.689 Y138.214
G1 F1800 X90.123 Y94.649 E3.07378
G1 X90.053 Y94.579
G0 F3600 X90.559 Y94.519
G1 F1800 X134.492 Y138.452 E3.09971
G1 X134.562 Y138.522
G0 F3600 X135.294 Y138.689
G1 F1800 X90.996 Y94.39 E3.1255
G1 X90.926 Y94.32
G0 F3600 X91.433 Y94.262
G1 F1800 X136.097 Y138.925 E3.15125
G1 X136.167 Y138.995
G0 F3600 X136.9 Y139.162
G1 F1800 X91.87 Y94.132 E3.17711
G1 X91.8 Y94.062
G0 F3600 X92.307 Y94.004
G1 F1800 X137.703 Y139.4 E3.20293
G1 X137.773 Y139.47
G0 F3600 X138.505 Y139.637
G1 F1800 X92.743 Y93.874 E3.22879
G1 X92.673 Y93.804
G0 F3600 X93.18 Y93.746
G1 F1800 X139.308 Y139.874 E3.25458
G1 X139.378 Y139.944
G0 F3600 X140.111 Y140.111
G1 F1800 X93.617 Y93.617 E3.2804
G1 X93.547 Y93.547
G0 F3600 X94.053 Y93.488
G1 F1800 X140.913 Y140.347 E3.30619
G1 X140.983 Y140.417
G0 F3600 X141.716 Y140.585
G1 F1800 X94.49 Y93.359 E3.33205
G1 X94.42 Y93.289
G0 F3600 X94.927 Y93.23
G1 F1800 X142.519 Y140.822 E3.35787
G1 X142.589 Y140.892
G0 F3600 X143.322 Y141.059
G1 F1800 X95.363 Y93.101 E3.38373
G1 X95.293 Y93.031
G0 F3600 X95.8 Y92.972
G1 F1800 X144.124 Y141.296 E3.40952
G1 X144.194 Y141.366
G0 F3600 X144.927 Y141.533
G1 F1800 X96.237 Y92.843 E3.43534
G1 X96.167 Y92.773
G0 F3600 X96.674 Y92.714
G1 F1800 X145.73 Y141.77 E3.46117
G1 X145.8 Y141.84
G0 F3600 X146.533 Y142.007
G1 F1800 X97.111 Y92.585 E3.48699
G1 X97.041 Y92.515
G0 F3600 X97.547 Y92.456
G1 F1800 X147.335 Y142.244 E3.51281
G1 X147.405 Y142.314
G0 F3600 X148.138 Y142.482
G1 F1800 X97.984 Y92.327 E3.53867
G1 X97.914 Y92.257
G0 F3600 X98.421 Y92.198
G1 F1800 X148.941 Y142.718 E3.56446
G1 X149.011 Y142.788
G0 F3600 X149.744 Y142.955
G1 F1800 X98.857 Y92.069 E3.59032
G1 X98.787 Y91.999
G0 F3600 X99.294 Y91.94
G1 F1800 X150.546 Y143.192 E3.61611
G1 X150.616 Y143.262
G0 F3600 X151.349 Y143.43
G1 F1800 X99.731 Y91.812 E3.64193
G1 X99.661 Y91.742
G0 F3600 X100.168 Y91.682
G1 F1800 X152.152 Y143.667 E3.66779
G1 X152.222 Y143.737
G0 F3600 X152.954 Y143.904
G1 F1800 X100.605 Y91.554 E3.69354
G1 X100.535 Y91.484
G0 F3600 X101.041 Y91.424
G1 F1800 X153.757 Y144.14 E3.7194
G1 X153.827 Y144.21
G0 F3600 X154.56 Y144.378
G1 F1800 X101.478 Y91.295 E3.74526
G1 X101.408 Y91.225
G0 F3600 X101.915 Y91.167
G1 F1800 X155.363 Y144.615 E3.77105
G1 X155.433 Y144.685
G0 F3600 X156.165 Y144.852
G1 F1800 X102.351 Y91.037 E3.7969
G1 X102.281 Y90.967
G0 F3600 X102.788 Y90.909
G1 F1800 X156.968 Y145.089 E3.82269
G1 X157.038 Y145.159
G0 F3600 X157.771 Y145.325
G1 F1800 X103.225 Y90.78 E3.84848
G1 X103.155 Y90.71
G0 F3600 X103.661 Y90.651
G1 F1800 X158.574 Y145.563 E3.87437
G1 X158.644 Y145.633
G0 F3600 X159.376 Y145.8
G1 F1800 X104.098 Y90.522 E3.90016
G1 X104.028 Y90.452
G0 F3600 X104.535 Y90.392
G1 F1800 X159.829 Y145.687 E3.90133
G1 X159.899 Y145.757
G0 F3600 X159.829 Y145.121
G1 F1800 X104.972 Y90.264 E3.87046
G1 X104.902 Y90.194
G0 F3600 X105.409 Y90.135
G1 F1800 X159.829 Y144.555 E3.83962
G1 X159.899 Y144.625
G0 F3600 X159.829 Y143.99
G1 F1800 X105.845 Y90.006 E3.80886
G1 X105.775 Y89.936
G0 F3600 X106.282 Y89.877
G1 F1800 X159.829 Y143.424 E3.77803
G1 X159.899 Y143.494
G0 F3600 X159.829 Y142.858
G1 F1800 X106.719 Y89.748 E3.7472
G1 X106.649 Y89.678
G0 F3600 X107.155 Y89.619
G1 F1800 X159.829 Y142.293 E3.71644
G1 X159.899 Y142.363
G0 F3600 X159.829 Y141.727
G1 F1800 X107.592 Y89.49 E3.6856
G1 X107.522 Y89.42
G0 F3600 X108.029 Y89.362
G1 F1800 X159.829 Y141.161 E3.65473
G1 X159.899 Y141.231
G0 F3600 X159.829 Y140.596
G1 F1800 X108.465 Y89.232 E3.62401
G1 X108.395 Y89.162
G0 F3600 X108.902 Y89.103
G1 F1800 X159.829 Y140.03 E3.59317
G1 X159.899 Y140.1
G0 F3600 X159.829 Y139.464
G1 F1800 X109.339 Y88.974 E3.56234
G1 X109.269 Y88.904
G0 F3600 X109.776 Y88.845
G1 F1800 X159.829 Y138.899 E3.53154
G1 X159.899 Y138.969
G0 F3600 X159.829 Y138.333
G1 F1800 X110.213 Y88.717 E3.50068
G1 X110.143 Y88.647
G0 F3600 X110.649 Y88.587
G1 F1800 X159.829 Y137.767 E3.46991
G1 X159.899 Y137.837
G0 F3600 X159.829 Y137.202
G1 F1800 X111.086 Y88.459 E3.43908
G1 X111.016 Y88.389
G0 F3600 X111.523 Y88.33
G1 F1800 X159.829 Y136.636 E3.40825
G1 X159.899 Y136.706
G0 F3600 X159.829 Y136.07
G1 F1800 X111.959 Y88.2 E3.37749
G1 X111.889 Y88.13
G0 F3600 X112.396 Y88.072
G1 F1800 X159.829 Y135.504 E3.34662
G1 X159.899 Y135.574
G0 F3600 X159.829 Y134.939
G1 F1800 X112.833 Y87.942 E3.31586
G1 X112.763 Y87.872
G0 F3600 X113.27 Y87.814
G1 F1800 X159.829 Y134.373 E3.28499
G1 X159.899 Y134.443
G0 F3600 X159.829 Y133.807
G1 F1800 X113.707 Y87.685 E3.25416
G1 X113.637 Y87.615
G0 F3600 X114.143 Y87.556
G1 F1800 X159.829 Y133.242 E3.22339
G1 X159.899 Y133.312
G0 F3600 X159.829 Y132.676
G1 F1800 X114.58 Y87.427 E3.19256
G1 X114.51 Y87.357
G0 F3600 X115.017 Y87.298
G1 F1800 X159.829 Y132.11 E3.16173
G1 X159.899 Y132.18
G0 F3600 X159.829 Y131.545
G1 F1800 X115.453 Y87.169 E3.13097
G1 X115.383 Y87.099
G0 F3600 X115.89 Y87.04
G1 F1800 X159.829 Y130.979 E3.10013
G1 X159.899 Y131.049
G0 F3600 X159.829 Y130.413
G1 F1800 X116.326 Y86.911 E3.06934
G1 X116.256 Y86.841
G0 F3600 X116.763 Y86.782
G1 F1800 X159.829 Y129.848 E3.03854
G1 X159.899 Y129.918
G0 F3600 X159.829 Y129.282
G1 F1800 X117.2 Y86.653 E3.00771
G1 X117.13 Y86.583
G0 F3600 X117.637 Y86.524
G1 F1800 X159.829 Y128.716 E2.97687
G1 X159.899 Y128.786
G0 F3600 X159.829 Y128.151
G1 F1800 X118.074 Y86.395 E2.94608
G1 X118.004 Y86.325
G0 F3600 X118.511 Y86.267
G1 F1800 X159.829 Y127.585 E2.91521
G1 X159.899 Y127.655
G0 F3600 X159.829 Y127.019
G1 F1800 X118.947 Y86.137 E2.88445
G1 X118.877 Y86.067
G0 F3600 X119.384 Y86.008
G1 F1800 X159.829 Y126.454 E2.85365
G1 X159.899 Y126.524
G0 F3600 X159.829 Y125.888
G1 F1800 X119.82 Y85.879 E2.82285
G1 X119.75 Y85.809
G0 F3600 X120.257 Y85.75
G1 F1800 X159.829 Y125.322 E2.79202
G1 X159.899 Y125.392
G0 F3600 X159.829 Y124.756
G1 F1800 X120.694 Y85.622 E2.76115
G1 X120.624 Y85.552
G0 F3600 X121.13 Y85.492
G1 F1800 X159.829 Y124.191 E2.73042
G1 X159.899 Y124.261
G0 F3600 X159.829 Y123.625
G1 F1800 X121.567 Y85.364 E2.69956
G1 X121.497 Y85.294
G0 F3600 X122.004 Y85.235
G1 F1800 X159.829 Y123.059 E2.66872
G1 X159.899 Y123.129
G0 F3600 X159.829 Y122.494
G1 F1800 X122.441 Y85.105 E2.63796
G1 X122.371 Y85.035
G0 F3600 X122.878 Y84.977
G1 F1800 X159.829 Y121.928 E2.60709
G1 X159.899 Y121.998
G0 F3600 X159.829 Y121.362
G1 F1800 X123.315 Y84.848 E2.57626
G1 X123.245 Y84.778
G0 F3600 X123.751 Y84.719
G1 F1800 X159.829 Y120.797 E2.5455
G1 X159.899 Y120.867
G0 F3600 X159.829 Y120.231
