;FLAVOR:RepRap
;TIME:23955
;Filament used: 24.4294m
;Layer height: 0.2
;Generated with Cura_SteamEngine 3.3.1
T0
M190 S60
M104 S225
M109 S225
M82 ;absolute extrusion mode
G28 ;Home
G1 Z15.0 F6000 ;Move the platform down 15mm
;Prime the extruder
G92 E0
G1 F200 E3
G92 E0
M83 ;relative extrusion mode
G1 F1500 E-6.5
;LAYER_COUNT:257
;LAYER:0
M107
G0 F3600 X60.776 Y66.285 Z0.3
;TYPE:SKIRT
G1 F1500 E6.5
G1 F1200 X61.362 Y65.755 E0.03942
G1 X61.998 Y65.288 E0.03937
G1 X62.678 Y64.887 E0.03938
G1 X63.396 Y64.557 E0.03942
G1 X64.143 Y64.302 E0.03938
G1 X64.912 Y64.123 E0.03939
G1 X65.696 Y64.023 E0.03943
G1 X66.291 Y64 E0.02971
G1 X135.97 Y64 E3.4763
G1 X136.759 Y64.04 E0.03941
G1 X137.539 Y64.159 E0.03936
G1 X138.304 Y64.357 E0.03942
G1 X139.044 Y64.631 E0.03937
G1 X139.753 Y64.979 E0.0394
G1 X140.185 Y65.248 E0.02539
G1 X140.458 Y65.087 E0.01581
G1 X141.176 Y64.757 E0.03942
G1 X141.923 Y64.502 E0.03938
G1 X142.692 Y64.323 E0.03939
G1 X143.476 Y64.223 E0.03943
G1 X144.071 Y64.2 E0.02971
G1 X153.626 Y64.2 E0.4767
G1 X154.415 Y64.24 E0.03941
G1 X155.195 Y64.359 E0.03936
G1 X155.96 Y64.557 E0.03942
G1 X156.7 Y64.831 E0.03937
G1 X157.409 Y65.179 E0.0394
G1 X158.08 Y65.597 E0.03944
G1 X158.704 Y66.08 E0.03937
G1 X159.141 Y66.485 E0.02973
G1 X159.258 Y66.602 E0.00825
G1 X159.788 Y67.188 E0.03942
G1 X160.255 Y67.824 E0.03937
G1 X160.656 Y68.504 E0.03938
G1 X160.986 Y69.222 E0.03942
G1 X161.241 Y69.969 E0.03938
G1 X161.42 Y70.738 E0.03939
G1 X161.52 Y71.522 E0.03943
G1 X161.543 Y72.117 E0.02971
G1 X161.543 Y147.883 E3.77998
G1 X161.503 Y148.672 E0.03941
G1 X161.384 Y149.452 E0.03936
G1 X161.186 Y150.217 E0.03942
G1 X160.912 Y150.957 E0.03937
G1 X160.564 Y151.666 E0.0394
G1 X160.146 Y152.337 E0.03944
G1 X159.663 Y152.961 E0.03937
G1 X159.258 Y153.398 E0.02973
G1 X159.141 Y153.515 E0.00825
G1 X158.555 Y154.045 E0.03942
G1 X157.919 Y154.512 E0.03937
G1 X157.239 Y154.913 E0.03938
G1 X156.521 Y155.243 E0.03942
G1 X155.774 Y155.498 E0.03938
G1 X155.005 Y155.677 E0.03939
G1 X154.221 Y155.777 E0.03943
G1 X153.626 Y155.8 E0.02971
G1 X144.071 Y155.8 E0.4767
G1 X143.282 Y155.76 E0.03941
G1 X142.502 Y155.641 E0.03936
G1 X141.737 Y155.443 E0.03942
G1 X140.997 Y155.169 E0.03937
G1 X140.288 Y154.821 E0.0394
G1 X140.183 Y154.756 E0.00616
G1 X140.095 Y154.817 E0.00534
G1 X139.405 Y155.201 E0.0394
G1 X138.68 Y155.513 E0.03938
G1 X137.926 Y155.75 E0.03943
G1 X137.153 Y155.909 E0.03937
G1 X136.367 Y155.99 E0.03942
G1 X135.966 Y156 E0.02001
G1 X66.291 Y156 E3.4761
G1 X65.502 Y155.96 E0.03941
G1 X64.722 Y155.841 E0.03936
G1 X63.957 Y155.643 E0.03942
G1 X63.217 Y155.369 E0.03937
G1 X62.508 Y155.021 E0.0394
G1 X61.837 Y154.603 E0.03944
G1 X61.213 Y154.12 E0.03937
G1 X60.776 Y153.715 E0.02973
G1 X60.542 Y153.481 E0.01651
G1 X60.012 Y152.895 E0.03942
G1 X59.545 Y152.259 E0.03937
G1 X59.144 Y151.579 E0.03938
G1 X58.814 Y150.861 E0.03942
G1 X58.559 Y150.114 E0.03938
G1 X58.38 Y149.345 E0.03939
G1 X58.28 Y148.561 E0.03943
G1 X58.257 Y147.966 E0.02971
G1 X58.257 Y72.034 E3.78826
G1 X58.297 Y71.245 E0.03941
G1 X58.416 Y70.465 E0.03936
G1 X58.614 Y69.7 E0.03942
G1 X58.888 Y68.96 E0.03937
G1 X59.236 Y68.251 E0.0394
G1 X59.654 Y67.58 E0.03944
G1 X60.137 Y66.956 E0.03937
G1 X60.542 Y66.519 E0.02973
G1 X60.776 Y66.285 E0.01651
G0 F3600 X61.058 Y66.567
G1 F1200 X61.63 Y66.053 E0.03837
G1 X62.252 Y65.6 E0.03839
G1 X62.917 Y65.214 E0.03836
G1 X63.619 Y64.899 E0.03839
G1 X64.35 Y64.659 E0.03839
G1 X65.101 Y64.496 E0.03834
G1 X65.866 Y64.412 E0.0384
G1 X66.291 Y64.4 E0.02121
G1 X135.97 Y64.4 E3.4763
G1 X136.738 Y64.44 E0.03837
G1 X137.498 Y64.559 E0.03838
G1 X138.241 Y64.757 E0.03836
G1 X138.96 Y65.031 E0.03839
G1 X139.646 Y65.378 E0.03835
G1 X140.174 Y65.718 E0.03133
G1 X140.697 Y65.414 E0.03018
G1 X141.399 Y65.099 E0.03839
G1 X142.13 Y64.859 E0.03839
G1 X142.881 Y64.696 E0.03834
G1 X143.646 Y64.612 E0.0384
G1 X144.071 Y64.6 E0.02121
G1 X153.626 Y64.6 E0.4767
G1 X154.394 Y64.64 E0.03837
G1 X155.154 Y64.759 E0.03838
G1 X155.897 Y64.957 E0.03836
G1 X156.616 Y65.231 E0.03839
G1 X157.302 Y65.578 E0.03835
G1 X157.949 Y65.994 E0.03838
G1 X158.549 Y66.475 E0.03837
G1 X158.859 Y66.767 E0.02125
G1 X158.976 Y66.884 E0.00825
G1 X159.49 Y67.456 E0.03837
G1 X159.943 Y68.078 E0.03839
G1 X160.329 Y68.743 E0.03836
G1 X160.644 Y69.445 E0.03839
G1 X160.884 Y70.176 E0.03839
G1 X161.047 Y70.927 E0.03834
G1 X161.131 Y71.692 E0.0384
G1 X161.143 Y72.117 E0.02121
G1 X161.143 Y147.883 E3.77998
G1 X161.103 Y148.651 E0.03837
G1 X160.984 Y149.411 E0.03838
G1 X160.786 Y150.154 E0.03836
G1 X160.512 Y150.873 E0.03839
G1 X160.165 Y151.559 E0.03835
G1 X159.749 Y152.206 E0.03838
G1 X159.268 Y152.806 E0.03837
G1 X158.976 Y153.116 E0.02125
G1 X158.859 Y153.233 E0.00825
G1 X158.287 Y153.747 E0.03837
G1 X157.665 Y154.2 E0.03839
G1 X157 Y154.586 E0.03836
G1 X156.298 Y154.901 E0.03839
G1 X155.567 Y155.141 E0.03839
G1 X154.816 Y155.304 E0.03834
G1 X154.051 Y155.388 E0.0384
G1 X153.626 Y155.4 E0.02121
G1 X144.071 Y155.4 E0.4767
G1 X143.303 Y155.36 E0.03837
G1 X142.543 Y155.241 E0.03838
G1 X141.8 Y155.043 E0.03836
G1 X141.081 Y154.769 E0.03839
G1 X140.395 Y154.422 E0.03835
G1 X140.172 Y154.279 E0.01322
G1 X139.713 Y154.581 E0.02741
G1 X139.03 Y154.936 E0.0384
G1 X138.314 Y155.218 E0.03839
G1 X137.573 Y155.423 E0.03836
G1 X136.815 Y155.551 E0.03835
G1 X135.966 Y155.6 E0.04243
G1 X66.291 Y155.6 E3.4761
G1 X65.523 Y155.56 E0.03837
G1 X64.763 Y155.441 E0.03838
G1 X64.02 Y155.243 E0.03836
G1 X63.301 Y154.969 E0.03839
G1 X62.615 Y154.622 E0.03835
G1 X61.968 Y154.206 E0.03838
G1 X61.368 Y153.725 E0.03837
G1 X61.058 Y153.433 E0.02125
G1 X60.824 Y153.199 E0.01651
G1 X60.31 Y152.627 E0.03837
G1 X59.857 Y152.005 E0.03839
G1 X59.471 Y151.34 E0.03836
G1 X59.156 Y150.638 E0.03839
G1 X58.916 Y149.907 E0.03839
G1 X58.753 Y149.156 E0.03834
G1 X58.669 Y148.391 E0.0384
G1 X58.657 Y147.966 E0.02121
G1 X58.657 Y72.034 E3.78826
G1 X58.697 Y71.266 E0.03837
G1 X58.816 Y70.506 E0.03838
G1 X59.014 Y69.763 E0.03836
G1 X59.288 Y69.044 E0.03839
G1 X59.635 Y68.358 E0.03835
G1 X60.051 Y67.711 E0.03838
G1 X60.532 Y67.111 E0.03837
G1 X60.824 Y66.801 E0.02125
G1 X61.058 Y66.567 E0.01651
G0 F3600 X61.341 Y66.85
G1 F1200 X61.898 Y66.35 E0.03734
G1 X62.504 Y65.913 E0.03727
G1 X63.154 Y65.542 E0.03734
G1 X63.84 Y65.243 E0.03733
G1 X64.554 Y65.019 E0.03733
G1 X65.287 Y64.872 E0.0373
G1 X66.291 Y64.8 E0.05022
G1 X135.97 Y64.8 E3.4763
G1 X136.717 Y64.84 E0.03732
G1 X137.455 Y64.959 E0.03729
G1 X138.177 Y65.157 E0.03735
G1 X138.873 Y65.43 E0.0373
G1 X139.536 Y65.777 E0.03733
G1 X140.159 Y66.192 E0.03735
G1 X140.166 Y66.198 E0.00046
G1 X140.284 Y66.113 E0.00726
G1 X140.934 Y65.742 E0.03734
G1 X141.62 Y65.443 E0.03733
G1 X142.334 Y65.219 E0.03733
G1 X143.067 Y65.072 E0.0373
G1 X144.071 Y65 E0.05022
G1 X153.626 Y65 E0.4767
G1 X154.373 Y65.04 E0.03732
G1 X155.111 Y65.159 E0.03729
G1 X155.833 Y65.357 E0.03735
G1 X156.529 Y65.63 E0.0373
G1 X157.192 Y65.977 E0.03733
G1 X157.815 Y66.392 E0.03735
G1 X158.576 Y67.05 E0.05019
G1 X158.693 Y67.167 E0.00825
G1 X159.193 Y67.724 E0.03734
G1 X159.63 Y68.33 E0.03727
G1 X160.001 Y68.98 E0.03734
G1 X160.3 Y69.666 E0.03733
G1 X160.524 Y70.38 E0.03733
G1 X160.671 Y71.113 E0.0373
G1 X160.743 Y72.117 E0.05022
G1 X160.743 Y147.883 E3.77998
G1 X160.703 Y148.63 E0.03732
G1 X160.584 Y149.368 E0.03729
G1 X160.386 Y150.09 E0.03735
G1 X160.113 Y150.786 E0.0373
G1 X159.766 Y151.449 E0.03733
G1 X159.351 Y152.072 E0.03735
G1 X158.693 Y152.833 E0.05019
G1 X158.576 Y152.95 E0.00825
G1 X158.019 Y153.45 E0.03734
G1 X157.413 Y153.887 E0.03727
G1 X156.763 Y154.258 E0.03734
G1 X156.077 Y154.557 E0.03733
G1 X155.363 Y154.781 E0.03733
G1 X154.63 Y154.928 E0.0373
G1 X153.626 Y155 E0.05022
G1 X144.071 Y155 E0.4767
G1 X143.324 Y154.96 E0.03732
G1 X142.586 Y154.841 E0.03729
G1 X141.864 Y154.643 E0.03735
G1 X141.168 Y154.37 E0.0373
G1 X140.505 Y154.023 E0.03733
G1 X140.16 Y153.793 E0.02069
G1 X139.967 Y153.944 E0.01223
G1 X139.332 Y154.338 E0.03728
G1 X138.657 Y154.662 E0.03735
G1 X137.952 Y154.912 E0.03732
G1 X137.225 Y155.086 E0.03729
G1 X136.483 Y155.181 E0.03732
G1 X135.966 Y155.2 E0.02581
G1 X66.291 Y155.2 E3.4761
G1 X65.544 Y155.16 E0.03732
G1 X64.806 Y155.041 E0.03729
G1 X64.084 Y154.843 E0.03735
G1 X63.388 Y154.57 E0.0373
G1 X62.725 Y154.223 E0.03733
G1 X62.102 Y153.808 E0.03735
G1 X61.341 Y153.15 E0.05019
G1 X61.107 Y152.916 E0.01651
G1 X60.607 Y152.359 E0.03734
G1 X60.17 Y151.753 E0.03727
G1 X59.799 Y151.103 E0.03734
G1 X59.5 Y150.417 E0.03733
G1 X59.276 Y149.703 E0.03733
G1 X59.129 Y148.97 E0.0373
G1 X59.057 Y147.966 E0.05022
G1 X59.057 Y72.034 E3.78826
G1 X59.097 Y71.287 E0.03732
G1 X59.216 Y70.549 E0.03729
G1 X59.414 Y69.827 E0.03735
G1 X59.687 Y69.131 E0.0373
G1 X60.034 Y68.468 E0.03733
G1 X60.449 Y67.845 E0.03735
G1 X61.107 Y67.084 E0.05019
G1 X61.341 Y66.85 E0.01651
G0 F3600 X61.624 Y67.133
G1 F1200 X62.165 Y66.649 E0.03622
G1 X62.756 Y66.226 E0.03626
G1 X63.39 Y65.872 E0.03623
G1 X64.059 Y65.589 E0.03624
G1 X64.755 Y65.381 E0.03624
G1 X65.47 Y65.251 E0.03626
G1 X66.291 Y65.2 E0.04104
G1 X135.97 Y65.2 E3.4763
G1 X136.695 Y65.24 E0.03623
G1 X137.412 Y65.359 E0.03626
G1 X138.111 Y65.557 E0.03625
G1 X138.784 Y65.83 E0.03623
G1 X139.423 Y66.175 E0.03623
G1 X140.02 Y66.589 E0.03625
G1 X140.15 Y66.702 E0.00859
G1 X140.536 Y66.426 E0.02367
G1 X141.17 Y66.072 E0.03623
G1 X141.839 Y65.789 E0.03624
G1 X142.535 Y65.581 E0.03624
G1 X143.25 Y65.451 E0.03626
G1 X144.071 Y65.4 E0.04104
G1 X153.626 Y65.4 E0.4767
G1 X154.351 Y65.44 E0.03623
G1 X155.068 Y65.559 E0.03626
G1 X155.767 Y65.757 E0.03625
G1 X156.44 Y66.03 E0.03623
G1 X157.079 Y66.375 E0.03623
G1 X157.676 Y66.789 E0.03625
G1 X158.293 Y67.333 E0.04104
G1 X158.41 Y67.45 E0.00825
G1 X158.894 Y67.991 E0.03622
G1 X159.317 Y68.582 E0.03626
G1 X159.671 Y69.216 E0.03623
G1 X159.954 Y69.885 E0.03624
G1 X160.162 Y70.581 E0.03624
G1 X160.292 Y71.296 E0.03626
G1 X160.343 Y72.117 E0.04104
G1 X160.343 Y147.883 E3.77998
G1 X160.303 Y148.608 E0.03623
G1 X160.184 Y149.325 E0.03626
G1 X159.986 Y150.024 E0.03625
G1 X159.713 Y150.697 E0.03623
G1 X159.368 Y151.336 E0.03623
G1 X158.954 Y151.933 E0.03625
G1 X158.41 Y152.55 E0.04104
G1 X158.293 Y152.667 E0.00825
G1 X157.752 Y153.151 E0.03622
G1 X157.161 Y153.574 E0.03626
G1 X156.527 Y153.928 E0.03623
G1 X155.858 Y154.211 E0.03624
G1 X155.162 Y154.419 E0.03624
G1 X154.447 Y154.549 E0.03626
G1 X153.626 Y154.6 E0.04104
G1 X144.071 Y154.6 E0.4767
G1 X143.346 Y154.56 E0.03623
G1 X142.629 Y154.441 E0.03626
G1 X141.93 Y154.243 E0.03625
G1 X141.257 Y153.97 E0.03623
G1 X140.618 Y153.625 E0.03623
G1 X140.152 Y153.302 E0.02829
G1 X139.582 Y153.722 E0.03532
G1 X138.953 Y154.085 E0.03623
G1 X138.288 Y154.378 E0.03625
G1 X137.595 Y154.596 E0.03624
G1 X136.882 Y154.736 E0.03625
G1 X135.966 Y154.8 E0.04581
G1 X66.291 Y154.8 E3.4761
G1 X65.566 Y154.76 E0.03623
G1 X64.849 Y154.641 E0.03626
G1 X64.15 Y154.443 E0.03625
G1 X63.477 Y154.17 E0.03623
G1 X62.838 Y153.825 E0.03623
G1 X62.241 Y153.411 E0.03625
G1 X61.624 Y152.867 E0.04104
G1 X61.39 Y152.633 E0.01651
G1 X60.906 Y152.092 E0.03622
G1 X60.483 Y151.501 E0.03626
G1 X60.129 Y150.867 E0.03623
G1 X59.846 Y150.198 E0.03624
G1 X59.638 Y149.502 E0.03624
G1 X59.508 Y148.787 E0.03626
G1 X59.457 Y147.966 E0.04104
G1 X59.457 Y72.034 E3.78826
G1 X59.497 Y71.309 E0.03623
G1 X59.616 Y70.592 E0.03626
G1 X59.814 Y69.893 E0.03625
G1 X60.087 Y69.22 E0.03623
G1 X60.432 Y68.581 E0.03623
G1 X60.846 Y67.984 E0.03625
G1 X61.39 Y67.367 E0.04104
G1 X61.624 Y67.133 E0.01651
G0 F3600 X61.907 Y67.416
G1 F1200 X62.432 Y66.947 E0.03512
G1 X63.007 Y66.541 E0.03512
G1 X63.625 Y66.203 E0.03514
G1 X64.276 Y65.936 E0.0351
G1 X64.954 Y65.746 E0.03513
G1 X65.649 Y65.633 E0.03513
G1 X66.291 Y65.6 E0.03207
G1 X135.97 Y65.6 E3.4763
G1 X136.673 Y65.64 E0.03513
G1 X137.367 Y65.759 E0.03513
G1 X138.042 Y65.957 E0.03509
G1 X138.691 Y66.229 E0.03511
G1 X139.305 Y66.574 E0.03514
G1 X139.876 Y66.985 E0.0351
G1 X140.132 Y67.218 E0.01727
G1 X140.212 Y67.147 E0.00534
G1 X140.787 Y66.741 E0.03512
G1 X141.405 Y66.403 E0.03514
G1 X142.056 Y66.136 E0.0351
G1 X142.734 Y65.946 E0.03513
G1 X143.429 Y65.833 E0.03513
G1 X144.071 Y65.8 E0.03207
G1 X153.626 Y65.8 E0.4767
G1 X154.329 Y65.84 E0.03513
G1 X155.023 Y65.959 E0.03513
G1 X155.698 Y66.157 E0.03509
G1 X156.347 Y66.429 E0.03511
G1 X156.961 Y66.774 E0.03514
G1 X157.532 Y67.185 E0.0351
G1 X158.01 Y67.616 E0.03211
G1 X158.127 Y67.733 E0.00825
G1 X158.596 Y68.258 E0.03512
G1 X159.002 Y68.833 E0.03512
G1 X159.34 Y69.451 E0.03514
G1 X159.607 Y70.102 E0.0351
G1 X159.797 Y70.78 E0.03513
G1 X159.91 Y71.475 E0.03513
G1 X159.943 Y72.117 E0.03207
G1 X159.943 Y147.883 E3.77998
G1 X159.903 Y148.586 E0.03513
G1 X159.784 Y149.28 E0.03513
G1 X159.586 Y149.955 E0.03509
G1 X159.314 Y150.604 E0.03511
G1 X158.969 Y151.218 E0.03514
G1 X158.558 Y151.789 E0.0351
G1 X158.127 Y152.267 E0.03211
G1 X158.01 Y152.384 E0.00825
G1 X157.485 Y152.853 E0.03512
G1 X156.91 Y153.259 E0.03512
G1 X156.292 Y153.597 E0.03514
G1 X155.641 Y153.864 E0.0351
G1 X154.963 Y154.054 E0.03513
G1 X154.268 Y154.167 E0.03513
G1 X153.626 Y154.2 E0.03207
G1 X144.071 Y154.2 E0.4767
G1 X143.368 Y154.16 E0.03513
G1 X142.674 Y154.041 E0.03513
G1 X141.999 Y153.843 E0.03509
G1 X141.35 Y153.571 E0.03511
G1 X140.736 Y153.226 E0.03514
G1 X140.165 Y152.815 E0.0351
G1 X140.129 Y152.782 E0.00244
G1 X139.777 Y153.091 E0.02337
G1 X139.198 Y153.491 E0.03511
G1 X138.577 Y153.823 E0.03513
G1 X137.923 Y154.083 E0.03511
G1 X137.243 Y154.267 E0.03515
G1 X136.547 Y154.373 E0.03512
G1 X135.966 Y154.4 E0.02902
G1 X66.291 Y154.4 E3.4761
G1 X65.588 Y154.36 E0.03513
G1 X64.894 Y154.241 E0.03513
G1 X64.219 Y154.043 E0.03509
G1 X63.57 Y153.771 E0.03511
G1 X62.956 Y153.426 E0.03514
G1 X62.385 Y153.015 E0.0351
G1 X61.907 Y152.584 E0.03211
G1 X61.673 Y152.35 E0.01651
G1 X61.204 Y151.825 E0.03512
G1 X60.798 Y151.25 E0.03512
G1 X60.46 Y150.632 E0.03514
G1 X60.193 Y149.981 E0.0351
G1 X60.003 Y149.303 E0.03513
G1 X59.89 Y148.608 E0.03513
G1 X59.857 Y147.966 E0.03207
G1 X59.857 Y72.034 E3.78826
G1 X59.897 Y71.331 E0.03513
G1 X60.016 Y70.637 E0.03513
G1 X60.214 Y69.962 E0.03509
G1 X60.486 Y69.313 E0.03511
G1 X60.831 Y68.699 E0.03514
G1 X61.242 Y68.128 E0.0351
G1 X61.673 Y67.65 E0.03211
G1 X61.907 Y67.416 E0.01651
G0 F3600 X62.19 Y67.699
G1 F1200 X62.699 Y67.246 E0.03399
G1 X63.257 Y66.857 E0.03394
G1 X63.857 Y66.535 E0.03397
G1 X64.491 Y66.286 E0.03398
G1 X65.15 Y66.113 E0.03399
G1 X65.824 Y66.019 E0.03395
G1 X66.291 Y66 E0.02332
G1 X135.97 Y66 E3.4763
G1 X136.65 Y66.04 E0.03398
G1 X137.32 Y66.159 E0.03395
G1 X137.972 Y66.356 E0.03398
G1 X138.596 Y66.628 E0.03396
G1 X139.184 Y66.972 E0.03399
G1 X139.728 Y67.382 E0.03399
G1 X140.124 Y67.762 E0.02738
G1 X140.479 Y67.446 E0.02371
G1 X141.037 Y67.057 E0.03394
G1 X141.637 Y66.735 E0.03397
G1 X142.271 Y66.486 E0.03398
G1 X142.93 Y66.313 E0.03399
G1 X143.604 Y66.219 E0.03395
G1 X144.071 Y66.2 E0.02332
G1 X153.626 Y66.2 E0.4767
G1 X154.306 Y66.24 E0.03398
G1 X154.976 Y66.359 E0.03395
G1 X155.628 Y66.556 E0.03398
G1 X156.252 Y66.828 E0.03396
G1 X156.84 Y67.172 E0.03399
G1 X157.384 Y67.582 E0.03399
G1 X157.727 Y67.899 E0.0233
G1 X157.844 Y68.016 E0.00825
G1 X158.297 Y68.525 E0.03399
G1 X158.686 Y69.083 E0.03394
G1 X159.008 Y69.683 E0.03397
G1 X159.257 Y70.317 E0.03398
G1 X159.43 Y70.976 E0.03399
G1 X159.524 Y71.65 E0.03395
G1 X159.543 Y72.117 E0.02332
G1 X159.543 Y147.883 E3.77998
G1 X159.503 Y148.563 E0.03398
G1 X159.384 Y149.233 E0.03395
G1 X159.187 Y149.885 E0.03398
G1 X158.915 Y150.509 E0.03396
G1 X158.571 Y151.097 E0.03399
G1 X158.161 Y151.641 E0.03399
G1 X157.844 Y151.984 E0.0233
G1 X157.727 Y152.101 E0.00825
